!!!COA: Josquin des Prez
!!!CDT: ~1450-1521/08/27
!!!COM: Gaspar
!!!OTL@@FRA: O Venus bant
!!!AGN: Chanson
!!!SCT: NJE 27.29
!!!SCA: New Josquin Edition 27.29
!!!voices: 3
**kern	**kern	**kern
*staff3	*staff2	*staff1
*Ivox	*Ivox	*Ivox
*I"Bassus	*I"Tenor	*I"Superius
*I'B	*I'T	*I'S
*clefF4	*clefGv2	*clefG2
*k[b-]	*k[]	*k[]
*M2/1	*M2/1	*M2/1
*met(C|)	*met(C|)	*met(C|)
=1-	=1-	=1-
2.GG/	0G	2.g/
4AA/	.	4f/
2BB-/	.	2d/
[2C/	.	[2e/
=2	=2	=2
2C/]	1A	2e/]
2.D\	.	2.f/
.	1A	.
4C/	.	4e/
2D\	.	2f/
=3	=3	=3
2.E\	0G	1g
4F\	.	.
4G\	.	2d/
4F\	.	.
[2G\	.	2e/
=4	=4	=4
4G\]	1r	2d/
4A\	.	.
1B-	.	2.g/
.	1G	.
.	.	4a/
4A\	.	2b\
4G\	.	.
=5	=5	=5
2.F\	1A	4cc\
.	.	4b\
.	.	4a/
4E\	.	4g/
1D	1A	2.f#i/
.	.	4e/
=6	=6	=6
2GG/	0G	1g
2.C/	.	.
.	.	1g
4D\	.	.
2E\	.	.
=7	=7	=7
2C/	1r	2.g/
2.E\	.	.
.	.	4f/
.	1G	2e/
4F\	.	.
2G\	.	2d/
=8	=8	=8
2C/	1.c	2e/
2.F\	.	2c/
.	.	1cc
4G\	.	.
2A\	2c\	.
=9	=9	=9
2F\	1c	1a
2.A\	.	.
.	2.c\	4a/
4Bni\	.	4g/
4c\	.	4a/
4d\	4B\	4b\
=10	=10	=10
2c\	1A	1cc
2.F\	.	.
.	2.A/	2a/
4G\	.	.
4A\	.	[2cc\
4B-\	4G/	.
=11	=11	=11
2A\	1A	4cc\]
.	.	4b\
2.D\	.	4a/
.	.	4g/
.	1A	2.f/
4E\	.	.
4F\	.	.
4G\	.	4e/
=12	=12	=12
2F\	1c	2a/
2.FF/	.	1a
.	1c	.
4GG/	.	.
4AA/	.	4g/
4BB-/	.	4f/
=13	=13	=13
2.C/	1G	2.e/
4BB-/	.	4f/
2.GG/	1G	2.g/
4AA/	.	4f/
=14	=14	=14
4BB-/	0d	2d/
4C/	.	.
1D	.	2.f/
.	.	4g/
2F\	.	2a/
=15	=15	=15
4G\	1B	2g/
4A\	.	.
4Bni\	.	1dd
4c\	.	.
2d\	1G	.
2G\	.	[2b\
=16	=16	=16
2.F\	0A	2b\]
.	.	4a/
4E\	.	4g/
2D\	.	2.f#i/
2D\	.	.
.	.	4e/
=17	=17	=17
2.GG/	[0G	0g
4AA/	.	.
2BB-/	.	.
2C/	.	.
=18	=18	=18
2GG/	0G]	1r
2.C/	.	.
.	.	1g
4D\	.	.
[2E\	.	.
=19	=19	=19
4E\]	1r	1g
4F\	.	.
2.G\	.	.
.	1G	1g
4F\	.	.
2E\	.	.
=20	=20	=20
2D\	1d	1a
2.F\	.	.
.	1d	1a
4E\	.	.
2F\	.	.
=21	=21	=21
2C/	1e	1.g
2.c\	.	.
.	1e	.
4Bni\	.	.
2c\	.	[2cc\
=22	=22	=22
1G	1d	2cc\]
.	.	4b\
.	.	4a/
2r	1d	1b
2G\	.	.
=23	=23	=23
2A\	0c	2.cc\
4G\	.	.
4F\	.	4b\
2E\	.	2g/
2F\	.	2a/
=24	=24	=24
2C/	1r	2g/
2.F\	.	1a
.	1c	.
4G\	.	.
[2A\	.	4g/
.	.	4f/
=25	=25	=25
4A\]	1c	2e/
4G\	.	.
2.F\	.	1a
.	1c	.
4G\	.	.
4A\	.	2a/
4Bni\	.	.
=26	=26	=26
1c	1A	1a
2c\	1A	1a
[2FF/	.	.
=27	=27	=27
4FF/]	1c	1.a
4FF/	.	.
2.FF/	.	.
.	1c	.
4GG/	.	.
4AA/	.	4g/
4BB-/	.	4f/
=28	=28	=28
1C	1G	1.e
2C/	1G	.
[2GG/	.	[2g/
=29	=29	=29
2GG/]	1d	4g/]
.	.	4a/
2G\	.	2b\
2A\	1c	2cc\
2F\	.	[2a/
=30	=30	=30
1G	0B	2a/]
.	.	4g/
.	.	4f/
2r	.	1g
2G\	.	.
=31	=31	=31
1.D	[0A	1a
.	.	1a
4C/	.	.
4BB-/	.	.
=32	=32	=32
2AA/	0A]	1.cc
2.A\	.	.
4Bni\	.	.
[2c\	.	2b\
=33	=33	=33
4c\]	1r	1.a
4Bni\	.	.
4A\	.	.
4G\	.	.
2F\	1A	.
4E\	.	4g/
4D\	.	4f/
=34	=34	=34
2.C/	1c	2.e/
4D\	.	4f/
2E\	1c	2g/
[2F\	.	[2a/
=35	=35	=35
4F\]	1A	4a/]
4G\	.	4b\
2.A\	.	2.cc\
.	1A	.
4G\	.	4b\
4F\	.	4a/
4E\	.	4g/
=36	=36	=36
4D\	0d	2f/
4C/	.	.
4BB-/	.	2.b-i\
4AA/	.	.
2GG/	.	.
.	.	4a/
4G\	.	4g/
4A\	.	4f/
=37	=37	=37
4Bni\	1B	2g/
4G\	.	.
2d\	.	2f/
4GG/	1G	1g
4AA/	.	.
4BB-/	.	.
4GG/	.	.
=38	=38	=38
2D\	0A	2f/
2C/	.	1g
1D	.	.
.	.	2f#i/
=39	=39	=39
0GGl	0Gl	0gl
==	==	==
*-	*-	*-
!!!RDF**kern: l=long note in original notation
!!!RDF**kern: i=editorial accidental
!!!ENC: Jesse Rodin; Victoria Chang 2011/07/26/
!!!END: 2011/07/26/
!!!EED: Jesse Rodin
!!!EEV: 2011/08/09/
!!attribution-level@Jos: 4 (questionable)
!!!ONB: Translated from MusicXML and edited on 2011/08/09/ by Craig Sapp
!!muse2ps:  C^@{COM}{/}@{COA}?\n@{SCT}^v100,100,150I150Q16
